X:1
T:I Cannot Sing the Old Songs
T:I Cannot Sing the Old Songs
T:Charlotte Alington Barnard (1830-1869)
T:I cannot sing the old songs, Their charm is sad and deep; Their melodies would waken Old sorrows from their sleep; And though all unforgotten still, and sadly sweet they be, I cannot sing the old songs, They are too dear to me.
T:I cannot sing the old songs, For visions come again, Of golden dreams departed And years of weary pain; Perhaps when earthly fetters shall have set my spirit free, My voice may know the old songs, For all eternity. 
T:by Mutopia - Scritto con MuseScore, un software libero e gratuito: http://musescore.org/it 
T:by Mutopia - Scritto con MuseScore, un software libero e gratuito: http://musescore.org/it 
C:Claribel [C. A. Barnard (1830-1869)]
Z:by Mutopia - Scritto con MuseScore, un software libero e gratuito: http://musescore.org/it
%%score 1 { ( 2 4 ) | ( 3 5 ) }
L:1/8
Q:1/4=60
M:2/4
K:G
V:1 treble nm="Voice"
V:2 treble nm="Piano"
V:4 treble 
V:3 bass 
V:5 bass 
V:1
"^Moderato"!mf! D | B A A3/2 G/ | G2!<(! F!<)! c |!>(! c E F3/2 E/!>)! | D3 B | B A A G | %6
w: I|can not sing the|old songs, I|sung long years a\-|go For|heart and voice would|
!<(! G2 F c!<)! |!>(! c B B3/2 A/!>)! | G3 G |!mf! G F F e | e d B G |!<(! B A A G!<)! | %12
w: fail me, And|fool\- ish tears would|flow; For|by gone hours come|o'er my heart, with|each fa mil\- iar|
!>(! G F E D!>)! | B A A3/2 G/ |!<(! G2 F c!<)! |!>(! c E F3/2 E/!>)! | D3 D |"^cresc." B c d ^d | %18
w: stra\- in _ I|can\- not sing the|old songs, Or|dream those dreams a|gain, I|can not sing the|
"^dim." f e G3/2 c/ | B D B3/2 A/ | G3 :| %21
w: old * songs, Or|dream those dreams a\-|gain,|
V:2
!mf! D | (BA A>G) | (G2!<(! F)!<)!c |!>(! ([Fc]E F>E)!>)! | D3 [DB] | ([DB][CA] [CA]G) | %6
!<(! G2 Fc!<)! |!>(! ([Ec][DB] [DB]>[CA])!>)! | [B,G]3 G |!mf! ([EG][^DF] [EG][ce]) | ed BG | %11
!<(! (BA) (AG)!<)! |!>(! (GF ED)!>)! | ([DB][CA] [CA]>G) |!<(! [C-G]2 [CF]c!<)! | %15
!>(! ([Ec][CE] [DF]>[CE])!>)! | D3 D |"_cresc." ([GB][Fc] [Gd]^d) |"_dim." fe [EG]>A | z2 B>B | %20
 [B,DG]3 :| %21
V:3
 z | (G,,D,[G,B,]D,) | (A,,D, [F,C]D,) | (D,,D,[F,C]D,) | (G,,D,[G,B,]) z | (G,,D,G,D,) | %6
 (A,,D,A,D,) | (D,,D,[F,C]D,) | ([G,,G,]D,G,) z | (C,G,CG,) | (D,G,B,D,) | C,[E,G,] ^C,[E,A,] | %12
 A,4 | (G,,D,G,D,) | (A,,D,A,D,) | (A,,D,A,D,) | G,, ([^G,B,][A,C]) z | [G,,G,][A,,A,] [B,,B,]2 | %18
 [C,C]2 [^C,_B,]3/2 z/ | [D,,D,]2 [D,,D,]2 | (G,,D,G,,) :| %21
V:4
 x | x4 | x4 | x4 | x4 | x4 | C3 E | x4 | x4 | x4 | ([GB]2 G) z | E4 | C4 | x4 | x4 | x4 | x4 | %17
 x4 | [Gc]3 x | [DG=B]D [CF]2 | x3 :| %21
V:5
 x | x4 | x4 | x4 | x4 | x4 | x4 | x4 | x4 | x4 | x4 | x4 | D,D, E,F, | x4 | x4 | x4 | x4 | x4 | %18
 x4 | x4 | x3 :| %21

